; G-Code generated by Simplify3D(R) Version 4.1.1
; May 8, 2023 at 10:59:47 AM
; Settings Summary
;   processName,Process1
;   applyToModels,voHop
;   profileName,Anycubic i3 Mega(2) (modified)
;   profileVersion,2019-06-15 17:50:36
;   baseProfile,
;   printMaterial,PLA
;   printQuality,Medium
;   printExtruders,
;   extruderName,Primary Extruder
;   extruderToolheadNumber,0
;   extruderDiameter,0.4
;   extruderAutoWidth,0
;   extruderWidth,0.4
;   extrusionMultiplier,0.98
;   extruderUseRetract,1
;   extruderRetractionDistance,4
;   extruderExtraRestartDistance,0
;   extruderRetractionZLift,0
;   extruderRetractionSpeed,3600
;   extruderUseCoasting,0
;   extruderCoastingDistance,0.2
;   extruderUseWipe,0
;   extruderWipeDistance,5
;   primaryExtruder,0
;   layerHeight,0.3
;   topSolidLayers,3
;   bottomSolidLayers,3
;   perimeterOutlines,4
;   printPerimetersInsideOut,0
;   startPointOption,2
;   startPointOriginX,0
;   startPointOriginY,0
;   sequentialIslands,0
;   spiralVaseMode,0
;   firstLayerHeightPercentage,90
;   firstLayerWidthPercentage,125
;   firstLayerUnderspeed,1
;   useRaft,0
;   raftExtruder,0
;   raftTopLayers,3
;   raftBaseLayers,2
;   raftOffset,3
;   raftSeparationDistance,0.14
;   raftTopInfill,100
;   aboveRaftSpeedMultiplier,0.3
;   useSkirt,1
;   skirtExtruder,0
;   skirtLayers,1
;   skirtOutlines,5
;   skirtOffset,1
;   usePrimePillar,0
;   primePillarExtruder,999
;   primePillarWidth,12
;   primePillarLocation,7
;   primePillarSpeedMultiplier,1
;   useOozeShield,0
;   oozeShieldExtruder,999
;   oozeShieldOffset,2
;   oozeShieldOutlines,1
;   oozeShieldSidewallShape,1
;   oozeShieldSidewallAngle,30
;   oozeShieldSpeedMultiplier,1
;   infillExtruder,0
;   internalInfillPattern,Rectilinear
;   externalInfillPattern,Rectilinear
;   infillPercentage,15
;   outlineOverlapPercentage,30
;   infillExtrusionWidthPercentage,100
;   minInfillLength,5
;   infillLayerInterval,1
;   internalInfillAngles,45,-45
;   overlapInternalInfillAngles,0
;   externalInfillAngles,45,-45
;   generateSupport,0
;   supportExtruder,0
;   supportInfillPercentage,30
;   supportExtraInflation,0
;   supportBaseLayers,0
;   denseSupportExtruder,0
;   denseSupportLayers,0
;   denseSupportInfillPercentage,70
;   supportLayerInterval,1
;   supportHorizontalPartOffset,0.3
;   supportUpperSeparationLayers,1
;   supportLowerSeparationLayers,1
;   supportType,0
;   supportGridSpacing,4
;   maxOverhangAngle,50
;   supportAngles,0
;   temperatureName,Primary Extruder,Heated Bed
;   temperatureNumber,0,0
;   temperatureSetpointCount,1,1
;   temperatureSetpointLayers,1,1
;   temperatureSetpointTemperatures,205,70
;   temperatureStabilizeAtStartup,1,1
;   temperatureHeatedBed,0,1
;   fanLayers,1,2
;   fanSpeeds,0,100
;   blipFanToFullPower,0
;   adjustSpeedForCooling,1
;   minSpeedLayerTime,15
;   minCoolingSpeedSlowdown,20
;   increaseFanForCooling,0
;   minFanLayerTime,45
;   maxCoolingFanSpeed,100
;   increaseFanForBridging,0
;   bridgingFanSpeed,100
;   use5D,1
;   relativeEdistances,0
;   allowEaxisZeroing,1
;   independentExtruderAxes,0
;   includeM10123,0
;   stickySupport,1
;   applyToolheadOffsets,0
;   gcodeXoffset,0
;   gcodeYoffset,0
;   gcodeZoffset,0
;   overrideMachineDefinition,1
;   machineTypeOverride,0
;   strokeXoverride,210
;   strokeYoverride,210
;   strokeZoverride,205
;   originOffsetXoverride,0
;   originOffsetYoverride,0
;   originOffsetZoverride,0
;   homeXdirOverride,-1
;   homeYdirOverride,1
;   homeZdirOverride,-1
;   flipXoverride,1
;   flipYoverride,-1
;   flipZoverride,1
;   toolheadOffsets,0,0|0,0|0,0|0,0|0,0|0,0
;   overrideFirmwareConfiguration,1
;   firmwareTypeOverride,RepRap (Marlin/Repetier/Sprinter)
;   GPXconfigOverride,r2
;   baudRateOverride,250000
;   overridePrinterModels,1
;   printerModelsOverride
;   startingGcode,G28 X0 Y0,G28 Z0,G1 Z15 F1000,M107 ; fan off,G5 ; enable resume from power failure,G92 E0 ; zero E axis,G1 E3 F200 ; prime
;   layerChangeGcode,
;   retractionGcode,
;   toolChangeGcode,
;   endingGcode,G1 X0 Y195 F2400 ; position for easy part removal,M106 S0 ; fan off,M104 S0 ; turn off extruder,M140 S0 ; turn off bed,M84 ; disable motors
;   exportFileFormat,gcode
;   celebration,0
;   celebrationSong,Random Song
;   postProcessing,
;   defaultSpeed,3600
;   outlineUnderspeed,0.9
;   solidInfillUnderspeed,0.9
;   supportUnderspeed,0.9
;   rapidXYspeed,6000
;   rapidZspeed,1002
;   minBridgingArea,50
;   bridgingExtraInflation,0
;   bridgingExtrusionMultiplier,1
;   bridgingSpeedMultiplier,1
;   useFixedBridgingAngle,0
;   fixedBridgingAngle,0
;   applyBridgingToPerimeters,0
;   filamentDiameters,1.75|1.75|1.75|1.75|1.75|1.75
;   filamentPricesPerKg,46|46|46|46|46|46
;   filamentDensities,1.25|1.25|1.25|1.25|1.25|1.25
;   useMinPrintHeight,0
;   minPrintHeight,0
;   useMaxPrintHeight,0
;   maxPrintHeight,0
;   useDiaphragm,0
;   diaphragmLayerInterval,20
;   robustSlicing,1
;   mergeAllIntoSolid,0
;   onlyRetractWhenCrossingOutline,1
;   retractBetweenLayers,1
;   useRetractionMinTravel,0
;   retractionMinTravel,3
;   retractWhileWiping,0
;   onlyWipeOutlines,1
;   avoidCrossingOutline,0
;   maxMovementDetourFactor,3
;   toolChangeRetractionDistance,12
;   toolChangeExtraRestartDistance,-0.5
;   toolChangeRetractionSpeed,600
;   externalThinWallType,1
;   internalThinWallType,1
;   thinWallAllowedOverlapPercentage,10
;   singleExtrusionMinLength,1
;   singleExtrusionMinPrintingWidthPercentage,50
;   singleExtrusionMaxPrintingWidthPercentage,200
;   singleExtrusionEndpointExtension,0.2
;   horizontalSizeCompensation,0
G90
M82
M106 S0
M140 S70
M190 S70
M104 S205 T0
M109 S205 T0
G28 X0 Y0
G28 Z0
G1 Z15 F1000
M107 ; fan off
G5 ; enable resume from power failure
G92 E0 ; zero E axis
G1 E3 F200 ; prime
; process Process1
; layer 1, Z = 0.270
T0
G92 E0.0000
G1 E-4.0000 F3600
; feature skirt
; tool H0.270 W0.500
G1 Z0.270 F1002
G1 X23.654 Y46.750 F6000
G1 E0.0000 F3600
G92 E0.0000
G1 X186.346 Y46.750 E8.9487 F3600
G1 X188.250 Y48.654 E9.0968
G1 X188.250 Y161.346 E15.2953
G1 X186.346 Y163.250 E15.4434
G1 X23.654 Y163.250 E24.3922
G1 X21.750 Y161.346 E24.5403
G1 X21.750 Y48.654 E30.7388
G1 X23.654 Y46.750 E30.8869
G92 E0.0000
G1 E-4.0000 F3600
G1 X23.861 Y47.250 F6000
G1 E0.0000 F3600
G92 E0.0000
G1 X186.139 Y47.250 E8.9259 F3600
G1 X187.750 Y48.861 E9.0512
G1 X187.750 Y161.139 E15.2270
G1 X186.139 Y162.750 E15.3523
G1 X23.861 Y162.750 E24.2782
G1 X22.250 Y161.139 E24.4036
G1 X22.250 Y48.861 E30.5793
G1 X23.861 Y47.250 E30.7046
G92 E0.0000
G1 E-4.0000 F3600
G1 X24.068 Y47.750 F6000
G1 E0.0000 F3600
G92 E0.0000
G1 X185.932 Y47.750 E8.9032 F3600
G1 X187.250 Y49.068 E9.0057
G1 X187.250 Y160.932 E15.1586
G1 X185.932 Y162.250 E15.2612
G1 X24.068 Y162.250 E24.1643
G1 X22.750 Y160.932 E24.2669
G1 X22.750 Y49.068 E30.4198
G1 X24.068 Y47.750 E30.5223
G92 E0.0000
G1 E-4.0000 F3600
G1 X24.275 Y48.250 F6000
G1 E0.0000 F3600
G92 E0.0000
G1 X185.725 Y48.250 E8.8804 F3600
G1 X186.750 Y49.275 E8.9601
G1 X186.750 Y160.725 E15.0903
G1 X185.725 Y161.750 E15.1700
G1 X24.275 Y161.750 E24.0504
G1 X23.250 Y160.725 E24.1302
G1 X23.250 Y49.275 E30.2603
G1 X24.275 Y48.250 E30.3401
G92 E0.0000
G1 E-4.0000 F3600
G1 X24.482 Y48.750 F6000
G1 E0.0000 F3600
G92 E0.0000
G1 X185.518 Y48.750 E8.8576 F3600
G1 X186.250 Y49.482 E8.9145
G1 X186.250 Y160.518 E15.0219
G1 X185.518 Y161.250 E15.0789
G1 X24.482 Y161.250 E23.9365
G1 X23.750 Y160.518 E23.9934
G1 X23.750 Y49.482 E30.1008
G1 X24.482 Y48.750 E30.1578
G92 E0.0000
G1 E-4.0000 F3600
; feature outer perimeter
G1 X25.250 Y50.250 F6000
G1 E0.0000 F3600
G92 E0.0000
G1 X184.750 Y50.250 E8.7731 F3240
G1 X184.750 Y159.750 E14.7961
G1 X25.250 Y159.750 E23.5692
G1 X25.250 Y50.250 E29.5921
; feature inner perimeter
G1 X25.750 Y50.750 F6000
G92 E0.0000
G1 X184.250 Y50.750 E8.7181 F3420
G1 X184.250 Y159.250 E14.6861
G1 X25.750 Y159.250 E23.4042
G1 X25.750 Y50.750 E29.3721
G1 X26.250 Y51.250 F6000
G92 E0.0000
G1 X183.750 Y51.250 E8.6631 F3420
G1 X183.750 Y158.750 E14.5760
G1 X26.250 Y158.750 E23.2392
G1 X26.250 Y51.250 E29.1521
G1 X26.750 Y51.750 F6000
G92 E0.0000
G1 X183.250 Y51.750 E8.6081 F3420
G1 X183.250 Y158.250 E14.4660
G1 X26.750 Y158.250 E23.0742
G1 X26.750 Y51.750 E28.9321
; feature outer perimeter
G1 X38.324 Y69.723 F6000
G92 E0.0000
G1 X37.961 Y70.001 E0.0252 F3240
G1 X37.683 Y70.364 E0.0503
G1 X37.508 Y70.786 E0.0755
G1 X37.448 Y71.240 E0.1006
G1 X37.508 Y71.694 E0.1258
G1 X37.683 Y72.116 E0.1510
G1 X37.961 Y72.479 E0.1761
G1 X38.324 Y72.757 E0.2013
G1 X38.747 Y72.932 E0.2264
G1 X39.200 Y72.992 E0.2516
G1 X39.653 Y72.932 E0.2767
G1 X40.076 Y72.757 E0.3019
G1 X40.439 Y72.479 E0.3271
G1 X40.717 Y72.116 E0.3522
G1 X40.892 Y71.693 E0.3774
G1 X40.952 Y71.239 E0.4026
G1 X40.885 Y70.769 E0.4287
G1 X40.717 Y70.364 E0.4528
G1 X40.439 Y70.001 E0.4780
G1 X40.076 Y69.723 E0.5032
G1 X39.653 Y69.548 E0.5283
G1 X39.200 Y69.488 E0.5535
G1 X38.747 Y69.548 E0.5786
G1 X38.324 Y69.723 E0.6038
; feature inner perimeter
G1 X38.072 Y69.286 F6000
G92 E0.0000
G1 X37.604 Y69.644 E0.0324 F3420
G1 X37.246 Y70.112 E0.0648
G1 X37.020 Y70.656 E0.0972
G1 X36.944 Y71.240 E0.1296
G1 X37.020 Y71.824 E0.1620
G1 X37.246 Y72.368 E0.1944
G1 X37.604 Y72.836 E0.2268
G1 X38.072 Y73.194 E0.2592
G1 X38.616 Y73.420 E0.2916
G1 X39.200 Y73.496 E0.3240
G1 X39.784 Y73.420 E0.3564
G1 X40.328 Y73.194 E0.3888
G1 X40.796 Y72.836 E0.4212
G1 X41.154 Y72.368 E0.4536
G1 X41.380 Y71.824 E0.4860
G1 X41.457 Y71.236 E0.5186
G1 X41.371 Y70.636 E0.5520
G1 X41.154 Y70.112 E0.5832
G1 X40.796 Y69.644 E0.6156
G1 X40.328 Y69.286 E0.6480
G1 X39.784 Y69.060 E0.6804
G1 X39.200 Y68.984 E0.7128
G1 X38.616 Y69.060 E0.7452
G1 X38.072 Y69.286 E0.7776
G1 X37.820 Y68.849 F6000
G92 E0.0000
G1 X37.248 Y69.288 E0.0396 F3420
G1 X36.809 Y69.860 E0.0793
G1 X36.533 Y70.525 E0.1189
G1 X36.439 Y71.240 E0.1586
G1 X36.533 Y71.955 E0.1982
G1 X36.809 Y72.620 E0.2379
G1 X37.248 Y73.192 E0.2775
G1 X37.820 Y73.631 E0.3171
G1 X38.485 Y73.907 E0.3568
G1 X39.200 Y74.001 E0.3964
G1 X39.915 Y73.907 E0.4361
G1 X40.580 Y73.631 E0.4757
G1 X41.152 Y73.192 E0.5153
G1 X41.591 Y72.620 E0.5550
G1 X41.867 Y71.955 E0.5946
G1 X41.962 Y71.233 E0.6347
G1 X41.857 Y70.503 E0.6752
G1 X41.591 Y69.860 E0.7135
G1 X41.152 Y69.288 E0.7532
G1 X40.580 Y68.849 E0.7928
G1 X39.915 Y68.573 E0.8324
G1 X39.200 Y68.479 E0.8721
G1 X38.485 Y68.573 E0.9117
G1 X37.820 Y68.849 E0.9514
G1 X37.567 Y68.412 F6000
G92 E0.0000
G1 X36.891 Y68.931 E0.0469 F3420
G1 X36.372 Y69.607 E0.0938
G1 X36.046 Y70.395 E0.1406
G1 X35.935 Y71.240 E0.1875
G1 X36.046 Y72.085 E0.2344
G1 X36.372 Y72.873 E0.2813
G1 X36.891 Y73.549 E0.3282
G1 X37.567 Y74.068 E0.3751
G1 X38.355 Y74.394 E0.4219
G1 X39.200 Y74.505 E0.4688
G1 X40.045 Y74.394 E0.5157
G1 X40.833 Y74.068 E0.5626
G1 X41.509 Y73.549 E0.6095
G1 X42.028 Y72.873 E0.6564
G1 X42.354 Y72.085 E0.7032
G1 X42.466 Y71.230 E0.7507
G1 X42.343 Y70.369 E0.7985
G1 X42.028 Y69.607 E0.8439
G1 X41.509 Y68.931 E0.8908
G1 X40.833 Y68.412 E0.9376
G1 X40.045 Y68.086 E0.9845
G1 X39.200 Y67.975 E1.0314
G1 X38.355 Y68.086 E1.0783
G1 X37.567 Y68.412 E1.1252
; feature outer perimeter
G1 X85.748 Y70.000 F6000
G92 E0.0000
G1 X85.808 Y70.454 E0.0252 F3240
G1 X85.983 Y70.876 E0.0503
G1 X86.261 Y71.239 E0.0755
G1 X86.624 Y71.517 E0.1006
G1 X87.047 Y71.692 E0.1258
G1 X87.500 Y71.752 E0.1510
G1 X87.953 Y71.692 E0.1761
G1 X88.376 Y71.517 E0.2013
G1 X88.739 Y71.239 E0.2264
G1 X89.017 Y70.876 E0.2516
G1 X89.192 Y70.453 E0.2768
G1 X89.252 Y69.999 E0.3020
G1 X89.185 Y69.529 E0.3281
G1 X89.017 Y69.124 E0.3522
G1 X88.739 Y68.761 E0.3774
G1 X88.376 Y68.483 E0.4025
G1 X87.954 Y68.308 E0.4277
G1 X87.500 Y68.248 E0.4528
G1 X87.046 Y68.308 E0.4780
G1 X86.624 Y68.483 E0.5032
G1 X86.261 Y68.761 E0.5283
G1 X85.983 Y69.124 E0.5535
G1 X85.808 Y69.546 E0.5786
G1 X85.748 Y70.000 E0.6038
; feature inner perimeter
G1 X85.244 Y70.000 F6000
G92 E0.0000
G1 X85.320 Y70.584 E0.0324 F3420
G1 X85.546 Y71.128 E0.0648
G1 X85.904 Y71.596 E0.0972
G1 X86.372 Y71.954 E0.1296
G1 X86.916 Y72.180 E0.1620
G1 X87.500 Y72.256 E0.1944
G1 X88.084 Y72.180 E0.2268
G1 X88.628 Y71.954 E0.2592
G1 X89.096 Y71.596 E0.2916
G1 X89.454 Y71.128 E0.3240
G1 X89.680 Y70.584 E0.3564
G1 X89.757 Y69.996 E0.3890
G1 X89.671 Y69.396 E0.4224
G1 X89.454 Y68.872 E0.4536
G1 X89.096 Y68.404 E0.4860
G1 X88.628 Y68.046 E0.5184
G1 X88.084 Y67.820 E0.5508
G1 X87.500 Y67.744 E0.5832
G1 X86.916 Y67.820 E0.6156
G1 X86.372 Y68.046 E0.6480
G1 X85.904 Y68.404 E0.6804
G1 X85.546 Y68.872 E0.7128
G1 X85.320 Y69.416 E0.7452
G1 X85.244 Y70.000 E0.7776
G1 X84.739 Y70.000 F6000
G92 E0.0000
G1 X84.833 Y70.715 E0.0396 F3420
G1 X85.109 Y71.380 E0.0793
G1 X85.548 Y71.952 E0.1189
G1 X86.120 Y72.391 E0.1586
G1 X86.785 Y72.667 E0.1982
G1 X87.500 Y72.761 E0.2379
G1 X88.215 Y72.667 E0.2775
G1 X88.880 Y72.391 E0.3171
G1 X89.452 Y71.952 E0.3568
G1 X89.891 Y71.380 E0.3964
G1 X90.167 Y70.715 E0.4361
G1 X90.262 Y69.993 E0.4761
G1 X90.157 Y69.263 E0.5167
G1 X89.891 Y68.620 E0.5550
G1 X89.452 Y68.048 E0.5946
G1 X88.880 Y67.609 E0.6342
G1 X88.215 Y67.333 E0.6739
G1 X87.500 Y67.239 E0.7135
G1 X86.785 Y67.333 E0.7532
G1 X86.120 Y67.609 E0.7928
G1 X85.548 Y68.048 E0.8325
G1 X85.109 Y68.620 E0.8721
G1 X84.833 Y69.285 E0.9117
G1 X84.739 Y70.000 E0.9514
G1 X84.235 Y70.000 F6000
G92 E0.0000
G1 X84.346 Y70.845 E0.0469 F3420
G1 X84.672 Y71.633 E0.0938
G1 X85.191 Y72.309 E0.1407
G1 X85.867 Y72.828 E0.1875
G1 X86.655 Y73.154 E0.2344
G1 X87.500 Y73.265 E0.2813
G1 X88.345 Y73.154 E0.3282
G1 X89.133 Y72.828 E0.3751
G1 X89.809 Y72.309 E0.4219
G1 X90.328 Y71.633 E0.4688
G1 X90.654 Y70.845 E0.5157
G1 X90.766 Y69.990 E0.5631
G1 X90.643 Y69.129 E0.6110
G1 X90.328 Y68.367 E0.6563
G1 X89.809 Y67.691 E0.7032
G1 X89.133 Y67.172 E0.7501
G1 X88.345 Y66.846 E0.7970
G1 X87.500 Y66.735 E0.8439
G1 X86.655 Y66.846 E0.8908
G1 X85.867 Y67.172 E0.9376
G1 X85.191 Y67.691 E0.9845
G1 X84.672 Y68.367 E1.0314
G1 X84.346 Y69.155 E1.0783
G1 X84.235 Y70.000 E1.1252
; feature outer perimeter
G1 X82.380 Y120.288 F6000
G92 E0.0000
G1 X81.927 Y120.348 E0.0252 F3240
G1 X81.504 Y120.523 E0.0503
G1 X81.141 Y120.801 E0.0755
G1 X80.863 Y121.164 E0.1006
G1 X80.688 Y121.587 E0.1258
G1 X80.628 Y122.040 E0.1510
G1 X80.688 Y122.493 E0.1761
G1 X80.863 Y122.916 E0.2013
G1 X81.141 Y123.279 E0.2264
G1 X81.504 Y123.557 E0.2516
G1 X81.927 Y123.732 E0.2768
G1 X82.380 Y123.792 E0.3019
G1 X82.833 Y123.732 E0.3271
G1 X83.256 Y123.557 E0.3522
G1 X83.619 Y123.279 E0.3774
G1 X83.897 Y122.916 E0.4025
G1 X84.072 Y122.493 E0.4277
G1 X84.132 Y122.039 E0.4529
G1 X84.065 Y121.569 E0.4790
G1 X83.897 Y121.164 E0.5031
G1 X83.619 Y120.801 E0.5283
G1 X83.256 Y120.523 E0.5535
G1 X82.833 Y120.348 E0.5786
G1 X82.380 Y120.288 E0.6038
; feature inner perimeter
G1 X82.380 Y119.784 F6000
G92 E0.0000
G1 X81.796 Y119.860 E0.0324 F3420
G1 X81.252 Y120.086 E0.0648
G1 X80.784 Y120.444 E0.0972
G1 X80.426 Y120.912 E0.1296
G1 X80.200 Y121.456 E0.1620
G1 X80.124 Y122.040 E0.1944
G1 X80.200 Y122.624 E0.2268
G1 X80.426 Y123.168 E0.2592
G1 X80.784 Y123.636 E0.2916
G1 X81.252 Y123.994 E0.3240
G1 X81.796 Y124.220 E0.3564
G1 X82.380 Y124.296 E0.3888
G1 X82.964 Y124.220 E0.4212
G1 X83.508 Y123.994 E0.4536
G1 X83.976 Y123.636 E0.4860
G1 X84.334 Y123.168 E0.5184
G1 X84.560 Y122.624 E0.5508
G1 X84.637 Y122.036 E0.5834
G1 X84.551 Y121.436 E0.6168
G1 X84.334 Y120.912 E0.6480
G1 X83.976 Y120.444 E0.6804
G1 X83.508 Y120.086 E0.7128
G1 X82.964 Y119.860 E0.7452
G1 X82.380 Y119.784 E0.7776
G1 X82.380 Y119.279 F6000
G92 E0.0000
G1 X81.665 Y119.373 E0.0396 F3420
G1 X81.000 Y119.649 E0.0793
G1 X80.428 Y120.088 E0.1189
G1 X79.989 Y120.660 E0.1586
G1 X79.713 Y121.325 E0.1982
G1 X79.619 Y122.040 E0.2379
G1 X79.713 Y122.755 E0.2775
G1 X79.989 Y123.420 E0.3171
G1 X80.428 Y123.992 E0.3568
G1 X81.000 Y124.431 E0.3964
G1 X81.665 Y124.707 E0.4361
G1 X82.380 Y124.801 E0.4757
G1 X83.095 Y124.707 E0.5153
G1 X83.760 Y124.431 E0.5550
G1 X84.332 Y123.992 E0.5946
G1 X84.771 Y123.420 E0.6343
G1 X85.047 Y122.755 E0.6739
G1 X85.142 Y122.033 E0.7139
G1 X85.037 Y121.303 E0.7545
G1 X84.771 Y120.660 E0.7928
G1 X84.332 Y120.088 E0.8324
G1 X83.760 Y119.649 E0.8721
G1 X83.095 Y119.373 E0.9117
